X: 38463
T: Stay Where You Are
R: jig
M: 6/8
K: Dmajor
|:dcd ABc|d2A AGF|dcd ABc|def gfe|
dcd ABc|d2A AGF|GFG EDE|c3 ABc:|
|:d2e fed|ecA AFA|d2e fed|faf gfe|
d2e fed|ecA AGF|GFG EDE|c3 ABc:|
|:~d2A ~c2A|~d2A ~c2A|~d2A ~c2A|def gfe|
[1~d2A ~c2A|~d2A ~c2A|GFG EDE|c3 ABc:|
[2~d2A~=c2A|~B2G A2F|GFG EDE|c3 ABc||

